X: 40918
T: Trip To Athlone, The
R: jig
M: 6/8
K: Dmajor
|:B|~A3 D2d|dcA AGE|~A3 ABc|dAB cde|
~A3 D2d|dcA AGE|~G3 Ade|fdc d2:|
|:e|f2d edc|Add cde|~f3 gec|ABc def|
fgg age|dcA AGE|~G3 Ade|fdc d2:|

